X:1
T:Quadrill from Watson's Book. CJF.084
L:1/8
Q:3/8=120
M:6/8
I:linebreak $
K:A
V:1 treble 
V:1
"^$" e/d/ | cAe dBe | cAa ecA | Bfe dcB | AGF Eed |$ cAe dBe | cAa ecA | Bfe dcB | Ace A2 ||$ g | %10
 fga bge | ^def eBg | fga bge | ecf B2 g |$ fga bge | ^def eBg | fga cf^d | egb e2"^$" ||$[K:D] A | %19
 fdA geA | fdA afd | Bgf fed | dcB Aag |$ fdA geA | fdA afd | Bge cBc |"^D Capo" dfe d2 |] %27
